X: 860
T: Sally Goodin
C:Traditional
B: jims roots
M:4/4
L:1/8
R: Cool! Begins in G then modulates to more familiar A
Q: 1/4=100
K:G
V:1 
GA |:"G"[DB]GAE [G2G,]GA | BGAG EGG,G | BGAE [G2G,][GG,]E | "D"[G,D]B,[G,D]D "G"EG[GG,]G :|
|:"G"{A}BB[DA]A [G,2G][G,G][G,G] | {A}[G,GB]BAG [G,E][G,G][G,G]G | {A}[GB][GB]AE [G,2G]GE | "D"DB,DG "G"[G,E]G [G,2G] :|
"G"[G,G]AB^c d2de |efed B[Dd][Dd][Dd] | [de]fed B2 [G,G]B | "D"ABAG "G"[G,E]GGG |
"G"[GA][GB][GB][GB] [G,2G] [GA][G,G] | [G,B]BAG [G,E]GGA | BAAG EGDB, | "D"G,B,DG "G"[G,E]GGG |
"G"[GB]GAA [G,2G]GA | BAAA EGGA | BGAG EG[G,D]B,| "D"G,B,[G,D]D "G"EGGG ||[2 [P:Transition G to A:]"D"G,B,[G,D]D "G"EGAB ||
ABce e2ee | egfe ceee | egfe {B}c2 [Ae]e | {B}cA{A}BA FAAB |
Aecc e2 ee | egfe ceef | a2 af e2 ab | cABA fA3 ||
V:G,G 
AB^c d2 [Dd]([Dde] | [De])fed [DB][Dd]dd | g3g d2 [G,G]G | "D"ABAG "G"{E}G2 GG ||
V:K:Amaj 
"A"c[Ae]Bc [A2e][Ae]B | c[Ae]BA F[AA]A[AB] | [Ac]A[Ac][AB] [AA][AB][AA][FA] | "E"EC[CE][CE] "A"F[AA][AA][AA] |
V:Ac 
V:Ae 
[ABe][Ae] [A2e][A[ABe] | [Ac]AB[Ae] FA[Ae][ABe] | [Ac][AA][Ac][AB] [A2e] [Ae][Ae] | E2 Ee F[AA][AA]e ||
% abcbook-tune_id 6298c287a057efee4b82c7b6


% abcbook-boost 0
% abcbook-tablature 
% abcbook-transpose 
% abcbook-lastupdated 1654178440047
% abcbook-soundfonts 
% abcbook-repeats 1


